X:0295
T:The Inverness Scots Measure.
M:C|
L:1/8
Q:1/2=104
I: :: || :: ::
Z:Jack Campin * www.campin.me.uk * 2009
K:D
FE|D3F (TED)(EF)|   B2E2 E2TFE |D3 F (TED)(EF)|    (AFED)   d3 e|
   fedf  edBe   |   dBdF E3  F |DEFG   AFdA   |({G}TF2) ED  D2 :|
fe|d2a2  fgaf   |{a}g2e2 e2 fe |d2ag   fgab   |    (ag)(fe) d3 e|
   fedf  edBe   |   dBAF E3  F |DEFG   AFdA   |     F2  D2  D2 :|
FE|DAFA  DAFA   |   B2E2 E2(FE)|DAFA   DAFA   |     dAFD    d3 e|
   fdef  dBAd   |   AFdF E2 FA |BcdB   AFGE   |     F2  D2  D2 :|
fe|dafa  dafa   |   b2e2 egfe  |dafa   dafa   |    .b(gfe)  afed|
   gefd  ecda   |   bagf efde  |fedB   ABdF   |     A2  D2  D2 :|
<end>
<start>
